X:0052
T:The Black Dance.
M:2/4
L:1/16
Q:1/4=104
I: :: ::
Z:Jack Campin * www.campin.me.uk * 2009
K:G
   dB  |G2G2 ABcA|dedc  B2dB |G2G2 ABcA|(dcBA) G2:|
(3(def)|g2g2 g2fe|d2d2 (dcBA)|G2AB c2BA| G2G2  G2:|
<end>
<start>
